X: 5772
T: Cairngorum Mountain
R: jig
M: 6/8
K: Amajor
|:E|E>CE A,>CE|ECE E2 A/ G/|F>GF FEF|A>Bc c2 c|
Bce faf|ecB ABc|cfe c2 B|cAF F2:|
|:e|e>fe ece|f>gf f2 e|ece f>ed|c2 B A2 f/ g/|
a>fe fec|ecB cBA|Bce fcB|AFF F2:|

